assets/images/v4/icon-sharing.svg

<svg fill="none" height="17" viewBox="0 0 17 17" width="17" xmlns="http://www.w3.org/2000/svg" xmlns:xlink="http://www.w3.org/1999/xlink"><clipPath id="a"><path d="m.225098.5h16v16h-16z"/></clipPath><g clip-path="url(#a)"><path d="m12.4438 10.875c-.7546 0-1.4408.2989-1.9465.7844l-3.00789-1.86356c.17163-.39775.26694-.83584.26694-1.29584s-.09531-.89809-.26697-1.29581l3.00792-1.86353c.5057.48547 1.1919.78434 1.9465.78434 1.5509 0 2.8125-1.26169 2.8125-2.8125s-1.2616-2.8125-2.8125-2.8125c-1.5508 0-2.81245 1.26169-2.81245 2.8125 0 .45784.11003.89047.30494 1.27287l-2.93754 1.81994c-.60237-.7245-1.51003-1.18656-2.52365-1.18656-1.80928 0-3.28125 1.47197-3.28125 3.28125 0 1.8093 1.47197 3.2812 3.28125 3.2812 1.01362 0 1.92128-.462 2.52365-1.1865l2.93754 1.8199c-.19491.3824-.30494.8151-.30494 1.2729 0 1.5508 1.26165 2.8125 2.81245 2.8125 1.5509 0 2.8125-1.2617 2.8125-2.8125s-1.2616-2.8125-2.8125-2.8125z" fill="#fff"/></g></svg>

<svg width="17" height="17" viewBox="0 0 17 17" fill="none" xmlns="http://www.w3.org/2000/svg">
<g clip-path="url(#clip0_173_18981)">
<path d="M12.4438 10.875C11.6892 10.875 11.003 11.1739 10.4973 11.6594L7.48941 9.79584C7.66104 9.39809 7.75635 8.96 7.75635 8.5C7.75635 8.04 7.66104 7.60191 7.48938 7.20419L10.4973 5.34066C11.003 5.82613 11.6892 6.125 12.4438 6.125C13.9947 6.125 15.2563 4.86331 15.2563 3.3125C15.2563 1.76169 13.9947 0.5 12.4438 0.5C10.893 0.5 9.63135 1.76169 9.63135 3.3125C9.63135 3.77034 9.74138 4.20297 9.93629 4.58537L6.99875 6.40531C6.39638 5.68081 5.48872 5.21875 4.4751 5.21875C2.66582 5.21875 1.19385 6.69072 1.19385 8.5C1.19385 10.3093 2.66582 11.7812 4.4751 11.7812C5.48872 11.7812 6.39638 11.3192 6.99875 10.5947L9.93629 12.4146C9.74138 12.797 9.63135 13.2297 9.63135 13.6875C9.63135 15.2383 10.893 16.5 12.4438 16.5C13.9947 16.5 15.2563 15.2383 15.2563 13.6875C15.2563 12.1367 13.9947 10.875 12.4438 10.875Z" fill="white"/>
</g>
<defs>
<clipPath id="clip0_173_18981">
<rect width="16" height="16" fill="white" transform="translate(0.225098 0.5)"/>
</clipPath>
</defs>
</svg>
